X:1
T:American Beauty Rag
T:American Beauty Rag
T:Joseph Lamb
T:by IMSLP
T:by IMSLP
T:by IMSLP
T:by IMSLP
T:by IMSLP
Z:by IMSLP
%%score { ( 1 3 ) | ( 2 4 ) }
L:1/8
M:2/4
K:Eb
V:1 treble nm="Piano" snm="Pno."
V:3 treble 
V:2 bass 
V:4 bass 
V:1
 z/[Q:1/4=83]"^Slow March Tempo" B/ |:!mf! (e/f/g/b/-) b/([ca]!>!e'/-) | %2
w: ||
 e'/([Bg]!>!e'/) (_g/=b)_b/- | ([Bgb]/c'/b/g/ e/c/B/G/ | E/F/^F/G/-) G/d/[E=Ac] | %5
w: |||
 [DAB]2- [DAB]/(=A/B/=B/ | c/)^c[Ad]/- [Ad]/g/[Adf] | ([Ge]/g/e/B/) (=A<_g) | _A/fe/- e z/ B/ | %9
w: ||||
 (e/f/g/b/-) b/([ca]!>!e'/-) | e'/([Bg]!>!e'/) (_g/=b)_b/- | ([Bgb]/c'/b/g/ e/c/B/G/ | %12
w: |||
 E/F/^F/G/-) G/d/[E=Ac] | [DAB]2- [DAB]/=A/B/=B/ | c/^c[Ad]/- [Ad]/g/[Adf] | [Ge]4- |1 %16
w: ||||
 [Ge]2 z z/ B/ :|2"^อก"!<(! [Ge]e/E/- E/f/F/[Gceg]/-!<)! |:!f! [Gceg]/g'/d'/f'/ e'/g/d'/c'/ | %19
w: ||* legato * * * * * *|
 c'/b/a/d/- d/(B/c/^c/ | (d/)c'/[=ea]/c'/ [fa]/c'/[^fa]/c'/ | [egb]/)c'/g/[egb]/- b<g- | %22
w: |||
 [Gce]/g'/d'/f'/ e'/g/d'/c'/ | c'/b/f/d/- d/d/=a/g/ | g/f/e/=A/- A/A/d/c/ | c/Bf/- f<g | %26
w: ||||
 [Gceg]/g'/d'/f'/ e'/g/d'/c'/ | c'/b/a/d/- d/(B/c/^c/ | (d/)c'/[=ea]/c'/ [fa]/c'/[^fa]/c'/ | %29
w: |||
 [egb]/)c'/g/[egb]/- [egb]/c'/[egb] | ([e_g=a]/e'/c'/=a/ _g/e/c/=A/) | %31
w: ||
 ([GB]/_A/=A/B/-) B/d/[E=Ac] | B/c/^c/d/ d/g/f |1 [Ge]e/E/- E/f/F/"^อก"[Gceg]/- :|2 %34
w: |||
 (([Ge]2 [egbe'])) z/ B/ ||!mf! (e/f/g/b/-) b/([ca]!>!e'/-) | e'/([Bg]!>!e'/) (_g/=b)_b/- | %37
w: |||
 ([Bgb]/c'/b/g/ e/c/B/G/ | E/F/^F/G/-) G/d/[E=Ac] | [DAB]2- [DAB]/=A/B/=B/ | %40
w: |||
 c/^c[Ad]/- [Ad]/g/[Adf] | ([Ge]/g/e/B/) (=A<_g) | (_A/fe/-) e z/ B/ | %43
w: |||
 (e/f/g/b/-) b/([ca]!>!e'/-) | e'/([Bg]!>!e'/) (_g/=b)_b/- | ([Bgb]/c'/b/g/ e/c/B/G/ | %46
w: |||
 E/F/^F/G/-) G/d/[E=Ac] | [DAB]2- [DAB]/(=A/B/=B/ | c/)^c[Ad]/- [Ad]/g/[Adf] | [Ge]4- | %50
w: ||||
 [Ge] z !>![egbe'] z ||[K:Ab]!f! (e/"_dim."fg/- g/f/e/=d/) | (_d=A/c/- c/B/G/F/ | %53
w: |||
 E) !>![E_Gce]2 [EGce] |!<(! [E=Gde]/>(!>!e/E/>)(!>!f/ F/>)(!>!g/G/>)!>!a/-!<)! |: %55
w: ||
 [Ace]>[Fcef]- [Fcef]/f/[^Fce] | f/eg/-!<(! g/>e/f/>e/!<)! | %57
w: ||
!>(! [Acea]>[Fcef]-!>)! [Fcef]/f/[^Fce] | f/eg/-!<(! g/>e/f/>e/!<)! |!>(! [Acea]>[Fcef]-!>)! f<^f | %60
w: |||
"_cresc." [GBeg]>[Begb]- [Begb]/=d'/[e=ac'] |!>(! [=d_ab](!>![ca]/>b/ !>![Bg]/>b/!>![Af]/>b/!>)! | %62
w: ||
!<(! !>![Ge]/)(!>!e/E/!>!f/ F/!>!g/G/!>!a/!<)! |!>(! [Ace]>)[Fcef]-!>)! [Fcef]/f/[^Fce] | %64
w: ||
 f/eg/-!<(! g/>e/f/>e/!<)! |!>(! [Acea]>[Fcef]-!>)! [Fcef]/f/[^Fce] | f/eg/-!<(! g/>e/f/>e/!<)! | %67
w: |||
!>(! [Acea]>[Fcf]-!>)! f<e | [DAd]>[A,EA]- A<A | [A,C]/f[Ace]/- [Ace]/c/[DGB] |1 %70
w: |||
 [CA]/>!>!e/[EAc]/>!>!f/ [FA_c]/>!>!g/[GBe]/>!>!a/ :|2!<(! [CA][Ee][FAf][EAe]!<)! |: %72
w: ||
 [=DA=d]/[Aa][F=Bf]/- [FBf]/d/[DA] |!8va(! z/ [a=d'a'][f=bf']/- [fbf']/d'/[=da]!8va)! | %74
w: ||
!f! z/ [Aca][Fcf]/- [Fcf]/e/[Ec] |!mf! z/!8va(! [ac'a'][fc'f']/-!<(! [fc'f']/^f'/[^fc']!<)! | %76
w: ||
 [gd'g']/!8va)!(E/F/^F/ G/[df]e/-) | [Gde](!>![Fd]/e/) (!>![Ec]/e/)(!>![=DB]/e/) | %78
w: ||
 z/ (!>![CA]/B/=B/ c/gf/-) | [Acf][Ace][FAcf][EAce] | [=DA=d]/[Aa][F=Bf]/- [FBf]/d/[DA] | %81
w: |||
!mf!!8va(! z/ [a=d'a'][f=bf']/- [fbf']/d'/[=da]!8va)! |!f! z/ [Aca][Fcf]/- [Fcf]/e/[Ec] | %83
w: ||
 z/!8va(! [ac'a'][fc'f']/-!<(! [fc'f']/^f'/[^fc']!<)! | [gd'g']/!8va)!(E/F/^F/ G/[df]e/-) | %85
w: ||
 [Gde](!>![Fd]/e/) (!>![Ec]/e/)(!>![DB]/e/) | [CA]2- [CA]<[EGde] |1 %87
w: ||
!<(! !>![Acea][EAce] [FAcf][EAce]!<)! :|2 !>![Acea]2- [Acea] |] %89
w: ||
V:2
 !>![B,,,B,,] |: !>![E,,E,][B,EG] [E,,E,][CEA] | [E,,E,][B,EG] ([=A,-E_G]2 | [A,E=G]4) | %4
 z2 [G,,G,][_G,,_G,] | [F,,F,][A,B,F] [B,,,B,,][A,B,D] | [F,,F,][A,B,F] [B,,,B,,][A,B,D] | %7
 (E,,E,) (C,,C,) | (D,,D,) [E,,E,]!>![B,,,B,,] | !>![E,,E,][B,EG] [E,,E,][CEA] | %10
 [E,,E,][B,EG] (([=A,E_G]2 | [B,E=G]4)) | z2 [G,,G,][_G,,_G,] | [F,,F,][A,B,F] [B,,,B,,][A,B,D] | %14
 [F,,F,][A,B,D] [B,,,B,,][A,B,D] | [E,,E,](=A,/(B,/) B,/)(^F,/G,) |1 %16
 E,!>![B,,,B,,]!>![C,,C,]!>![D,,D,] :|2 E, z !>![E,,E,]!>![D,,D,] |: %18
 !>![C,,C,][G,CE] [G,,G,][_G,,_G,] | [F,,F,][B,DA] [B,,,B,,][B,DA] | %20
 [F,,F,][B,DA] [B,,,B,,][B,DA] | [E,,E,][B,EG] [B,,B,][=B,,=B,] | [C,C][G,CE] [G,,G,][_G,,_G,] | %23
 [F,,F,][F,B,D] [D,,D,][_D,,_D,] | [C,,C,][F,=A,E] [F,,F,][F,A,] | [B,,,B,,]2 [B,,B,][=B,,=B,] | %26
 [C,C][G,CE] [G,,G,][_G,,_G,] | [F,,F,][B,DA] [B,,,B,,][B,DA] | [F,,F,][B,DA] [B,,,B,,][B,DA] | %29
 [E,,E,][B,EG] [E,,E,][_D,,_D,] | !>![C,,C,]!>![E,,E,]!>![_G,,_G,]!>![=A,,=A,] | %31
"^L.H." !>![B,,B,]2- [B,,B,] x | [F,,F,][A,B,D] [B,,,B,,][A,B,D] |1 %33
 [E,B,] z !>![E,,E,]!>![D,,D,] :|2 (([E,B,]2 [E,,E,]))!>![B,,,B,,] || %35
 !>![E,,E,][B,EG] [E,,E,][CEA] | [E,,E,][B,EG] ([=A,-E_G]2 | [A,E=G]4) | z2 [G,,G,][_G,,_G,] | %39
 [F,,F,][A,B,F] [B,,,B,,][A,B,D] | [F,,F,][A,B,D] [B,,,B,,][A,B,D] | (E,,E,) (C,,C,) | %42
 (D,,D,) [E,,E,]!>![B,,,B,,] | !>![E,,E,][B,EG] [E,,E,][CEA] | [E,,E,][B,EG] (([=A,E_G]2 | %45
 [B,E=G]4)) | z2 [G,,G,][_G,,_G,] | [F,,F,][A,B,F] [B,,,B,,][A,B,D] | %48
 [F,,F,][A,B,D] [B,,,B,,][A,B,D] | [E,,E,](=A,/(B,/) B,/)(^F,/G,) | E, z !>![E,,E,] z || %51
[K:Ab] (E/FG/- G/F/E/=D/) | (_D=A,/C/- C/B,/G,/F,/ | E,) !>![E,=A,]2 [F,A,] | %54
 [E,B,]/>(!>!E,,/E,/>)!>!=D,,/ =D,/>(!>!_D,,/_D,/>)!>!C,,/- |: %55
 [C,,C,]!mp![E,A,C] [A,,A,][=A,,=A,] | [B,,B,][E,G,=D] !>![E,,E,]!>![=D,,=D,] | %57
 [C,,C,][E,A,C] [A,,A,][=A,,=A,] | [B,,B,][E,G,D] !>![E,,E,]!>![D,,D,] | %59
 !>![C,,C,][E,A,C] [C,,C,][_C,,_C,] | [B,,,B,,][B,EG] [G,,G,][_G,,_G,] | %61
 [F,,F,][B,=DA] [B,,,B,,][A,B,D] | [E,,E,]/!>!E,,/E,/!>!=D,,/ =D,/!>!_D,,/_D,/!>!C,,/ | %63
 !>![C,,C,][E,A,C] [A,,A,][=A,,=A,] | [B,,B,][E,G,D] !>![E,,E,]!>![D,,D,] | %65
 !>![C,,C,][E,A,C] [A,,A,][=A,,=A,] | [B,,B,][E,G,D] !>![E,,E,]!>![D,,D,] | %67
 [C,,C,][E,A,C] !>![A,,A,]!>![_G,,_G,] | (!>!F,,F,) (!>!_F,,_F,) | %69
!ped! !>![E,,E,]2- [E,,E,][E,,E,]!ped-up! |1 %70
 [A,,E,]/>!>!E,,/E,/>!>!=D,,/ =D,/>!>!_D,,/_D,/>!>!C,,/ :|2 [A,,E,]2 !>![A,,A,]!>![_G,,_G,] |: %72
!f! !>![F,,F,]!>![=B,,=B,]!>![A,,A,]!>![F,,F,] | %73
!mf! !>![D,,D,]!>![=B,,,=B,,]!>![A,,,A,,]!>![F,,,F,,] | !>![E,,,E,,][E,A,C] [C,,C,][E,A,C] | %75
 [A,,A,][E,A,C] [C,C][=A,,=A,] | [B,,B,][E,G,D] [E,,E,][E,G,D] | [B,,B,][E,G,D] E,,E, | %78
 [A,,,A,,][E,A,C] [C,,C,][E,G,C] | [A,,A,][E,A,C] !>![A,,A,]!>![_G,,_G,] | %80
 !>![F,,F,]!>![=B,,=B,]!>![A,,G,]!>![F,,F,] | !>![D,,D,][=B,,,=B,,]!>![A,,,A,,]!>![F,,,F,,] | %82
 !>![E,,,E,,][E,A,C] [C,,C,][E,A,C] |!mf! [A,,A,][E,A,C][C,C][=A,,=A,] | %84
 [B,,B,][E,G,D] [E,,E,][E,G,D] | [B,,B,][E,G,D] E,,E, | (A,,/=D,/E,/=E,/ F,)!>!E, |1 %87
 !>![A,,A,]2 !>![A,,A,]!>![_G,,_G,] :|2 !>![A,,A,]!>![E,,E,] !>![A,,,A,,] |] %89
V:3
 x |: x4 | x2 [=B_g]>[_B=g]- | x4 | x4 | x4 | x4 | x2 =A2 | A>G- G x | x4 | x2 [=B_g]>[_B=g]- | %11
 x4 | x4 | x4 | x4 | x4 |1 x4 :|2 x4 |: x2 e'/g/[e=a] | [d_a]>d x2 | x4 | x2 [eg][Gdf] | %22
 g/ x3/2 e'/g/[e=a] | [df]f/d/- d/d/[B=e] | [=A_e]e/A/- A/A/[EA] | [DA]>[Ad]- [Ad][Gdf] | %26
 x2 e'/g/[e=a] | [d_a]a/d/ x2 | x4 | x4 | x4 | E/F/^F/G/- G[I:staff +1][_G,,_G,] | %32
[I:staff -1] [D_A]>A [Ad][Ad] |1 x4 :|2 x4 || x4 | x2 [=B_g]>[_B=g]- | x4 | x4 | x4 | x4 | x2 =A2 | %42
 A>G- G x | x/ z/ z z2 | x2 [=B_g]>[_B=g]- | x4 | x4 | x4 | x4 | x4 | x4 ||[K:Ab] x4 | x4 | x4 | %54
 x4 |: a3/2 x5/2 | [Gd]>[Gd]- [Gd][Fd] | x4 | [Gd]>[Gd]- [Gd][Fd] | x2 [Fcef]/^f/[^F=Ae] | x4 | %61
 x4 | x4 | x4 | [Gd]>[Gd]- [Gd][Fd] | x4 | [Gd]>[Gd]- [Gd][Fd] | x2 [Fcf][EB] | x2 [A,E][A,D] | %69
 A/ x7/2 |1 x4 :|2 x4 |: x4 |!8va(! x4!8va)! | x4 | x/!8va(! x7/2 | x/!8va)! x3/2 G>[Gd]- | x4 | %78
 x2 [Ac]>[Ac]- | x4 | x4 |!8va(! x4!8va)! | x4 | x/!8va(! x7/2 | x/!8va)! x3/2 G>[Gd]- | x4 | x4 |1 %87
 x4 :|2 x3 |] %89
V:4
 x |: x4 | x4 | x4 | x4 | x4 | x4 | x4 | x4 | x4 | x4 | x4 | x4 | x4 | x4 | x4 |1 x4 :|2 x4 |: x4 | %19
 x4 | x4 | x4 | x4 | x4 | x4 | x4 | x4 | x4 | x4 | x4 | x4 | x4 | x4 |1 x4 :|2 x4 || x4 | x4 | x4 | %38
 x4 | x4 | x4 | x4 | x4 | x4 | x4 | x4 | x4 | x4 | x4 | x4 | x4 ||[K:Ab] x4 | x4 | x4 | x4 |: %55
 C, x3 | x4 | x4 | x4 | x4 | x4 | x4 | x4 | x4 | x4 | x4 | x4 | x4 | F,,2 _F,,2 | x4 |1 x4 :|2 %71
 x4 |: x4 | x4 | x4 | x4 | x4 | x2 E,,2 | x4 | x4 | x4 | x4 | x4 | x4 | x4 | x2 E,,2 | %86
 A,,2- A,,E,, |1 x4 :|2 x3 |] %89

